public/payments/common/mercado-pago.svg

<svg width="96" height="66" viewBox="0 0 96 66" fill="none" xmlns="http://www.w3.org/2000/svg">
<g clip-path="url(#clip0_229_147)">
<path d="M48.1986 1.24298C22.08 1.24298 0.893799 14.751 0.893799 31.405C0.893799 48.059 22.08 62.876 48.1986 62.876C74.3172 62.876 95.5034 48.07 95.5034 31.405C95.5034 14.74 74.3393 1.24298 48.1986 1.24298Z" fill="#00B1EA"/>
<path d="M32.8275 22.077C32.8275 22.077 32.342 22.594 32.6399 22.979C33.3682 23.914 35.6303 24.442 37.9144 23.936C39.2716 23.628 41.0262 22.253 42.7034 20.911C44.3309 19.4481 46.1967 18.2726 48.2206 17.435C49.5046 16.9656 50.9071 16.927 52.2151 17.325C53.5411 17.8213 54.7725 18.5393 55.8565 19.448C59.0234 21.824 71.7792 32.912 73.9861 34.848C80.7612 32.0236 87.7782 29.8147 94.9516 28.248C94.0137 22.561 90.5379 17.127 85.3075 12.848C77.9586 15.928 68.3806 17.765 59.5972 13.497C56.615 12.1523 53.3909 11.4227 50.1186 11.352C43.1558 11.517 40.1324 14.52 36.9434 17.699L32.8275 22.077Z" fill="white"/>
<path d="M73.4013 36.058C73.2468 35.926 58.4165 22.979 55.0399 20.46C53.8687 19.4235 52.4259 18.7406 50.8799 18.491C50.212 18.4414 49.5405 18.5046 48.8937 18.678C46.9075 19.4248 45.0696 20.5159 43.4648 21.901C41.5889 23.397 39.8123 24.805 38.1682 25.201C36.1806 25.611 34.1116 25.303 32.3309 24.332C31.9084 24.0654 31.5715 23.6837 31.3599 23.232C31.2391 22.8968 31.2219 22.5332 31.3104 22.1881C31.3989 21.843 31.5891 21.5323 31.8565 21.296L35.9613 16.896L37.4068 15.477C36.1456 15.6688 34.8993 15.9482 33.6772 16.313C32.25 16.7838 30.765 17.0577 29.2634 17.127C27.7807 16.9747 26.3074 16.7433 24.8496 16.434C20.4712 15.411 16.1974 13.9859 12.0827 12.177C6.25648 16.5 2.4606 21.802 1.33508 27.753C2.1737 27.973 4.35854 28.468 4.93234 28.6C18.1075 31.526 22.2123 34.529 22.9627 35.2C23.4 34.7093 23.9431 34.3238 24.5512 34.0724C25.1594 33.821 25.8168 33.7101 26.4741 33.7482C27.1314 33.7863 27.7715 33.9724 28.3463 34.2924C28.9211 34.6124 29.4157 35.0581 29.793 35.596C30.6851 34.8831 31.7945 34.495 32.9379 34.496C33.5769 34.5048 34.2103 34.6162 34.8137 34.826C35.4014 35.0105 35.9423 35.3192 36.3994 35.7312C36.8564 36.1432 37.2189 36.6486 37.462 37.213C38.0379 36.9556 38.6625 36.8243 39.2937 36.828C40.0549 36.8358 40.8063 37.0006 41.5006 37.312C42.4608 37.7573 43.2406 38.515 43.7118 39.4605C44.1831 40.406 44.3177 41.4831 44.0937 42.515C44.2664 42.5034 44.4396 42.5034 44.6123 42.515C45.5202 42.5111 46.4134 42.7434 47.2037 43.1889C47.994 43.6343 48.6541 44.2776 49.1187 45.0551C49.5834 45.8327 49.8365 46.7176 49.8532 47.6225C49.8699 48.5274 49.6494 49.421 49.2137 50.215C50.5768 51.0457 52.1518 51.4659 53.7489 51.425C54.1483 51.4242 54.5434 51.3417 54.9097 51.1828C55.276 51.0239 55.6057 50.7919 55.8786 50.501C56.011 50.314 56.1544 50.105 56.022 49.951L52.3034 45.837C52.3034 45.837 51.6854 45.265 51.8951 45.034C52.1047 44.803 52.4909 45.133 52.7447 45.353C54.6316 46.937 56.9379 49.302 56.9379 49.302C56.9379 49.302 57.1254 49.632 58.0413 49.786C58.5532 49.8752 59.0778 49.8607 59.5839 49.7435C60.0901 49.6264 60.5674 49.4089 60.9875 49.104C61.2219 48.9017 61.4396 48.681 61.6385 48.444C61.9007 48.0848 62.0327 47.6475 62.0126 47.2037C61.9926 46.76 61.8217 46.3362 61.5282 46.002L57.1034 41.096C57.1034 41.096 56.4744 40.524 56.6951 40.293C56.9158 40.062 57.291 40.403 57.5558 40.623C58.9241 41.723 60.8661 43.714 62.731 45.529C63.3501 45.9476 64.0867 46.1592 64.8343 46.1335C65.582 46.1078 66.3022 45.8461 66.8909 45.386C67.3732 45.1212 67.7721 44.7278 68.043 44.2499C68.3138 43.772 68.446 43.2285 68.4248 42.68C68.3263 41.9924 68.0001 41.3574 67.4979 40.876L61.5613 34.936C61.5613 34.936 60.9323 34.408 61.1641 34.133C61.3958 33.858 61.7599 34.232 62.0137 34.452C63.9006 36.036 69.0096 40.7 69.0096 40.7C69.6108 41.0869 70.3142 41.2862 71.0297 41.2725C71.7451 41.2588 72.4402 41.0327 73.0261 40.623C73.4024 40.4021 73.7195 40.0936 73.9501 39.7238C74.1807 39.3541 74.318 38.9342 74.3503 38.5C74.3898 38.0477 74.3249 37.5924 74.1603 37.1691C73.9958 36.7458 73.7362 36.3657 73.4013 36.058Z" fill="white"/>
<path d="M44.6455 43.582C43.949 43.675 43.2622 43.8296 42.5931 44.044C42.5269 44.044 42.6483 43.637 42.7366 43.417C42.8249 43.197 44.0386 39.578 41.0814 38.313C40.4205 37.9592 39.6626 37.828 38.9207 37.939C38.1789 38.05 37.493 38.3973 36.9655 38.929C36.8442 39.061 36.789 39.05 36.7779 38.929C36.7516 38.2526 36.5173 37.6006 36.1068 37.0615C35.6962 36.5223 35.1292 36.1221 34.4828 35.915C33.5628 35.6244 32.5726 35.6424 31.6638 35.9662C30.755 36.29 29.9778 36.9018 29.4511 37.708C29.3545 36.9952 29.02 36.3356 28.5014 35.8356C27.9828 35.3355 27.3104 35.0241 26.5926 34.9516C25.8747 34.8791 25.1533 35.0498 24.5446 35.436C23.936 35.8222 23.4755 36.4015 23.2376 37.0805C22.9996 37.7595 22.9979 38.4986 23.2329 39.1787C23.4678 39.8587 23.9257 40.44 24.5326 40.829C25.1395 41.2179 25.8601 41.3917 26.5783 41.3224C27.2964 41.2531 27.9702 40.9448 28.4911 40.447C28.4911 40.447 28.4911 40.447 28.4911 40.557C28.2721 41.5523 28.4205 42.5929 28.9089 43.488C29.3974 44.3831 30.1932 45.0725 31.1504 45.43C31.668 45.6279 32.2286 45.6873 32.7764 45.6024C33.3242 45.5175 33.8402 45.2912 34.2731 44.946C34.5379 44.77 34.571 44.836 34.5379 45.089C34.4276 45.826 34.5379 47.432 36.811 48.334C37.3668 48.6048 37.9952 48.6901 38.6033 48.5772C39.2115 48.4642 39.767 48.1592 40.1876 47.707C40.4745 47.443 40.5518 47.487 40.5628 47.894C40.6016 48.6867 40.8727 49.4508 41.3426 50.0915C41.8125 50.7322 42.4605 51.2215 43.2065 51.4989C43.9524 51.7764 44.7636 51.8297 45.5396 51.6523C46.3157 51.4749 47.0225 51.0746 47.5727 50.501C48.1229 49.9273 48.4923 49.2054 48.6352 48.4246C48.7781 47.6438 48.6883 46.8384 48.3768 46.1079C48.0653 45.3775 47.5458 44.7541 46.8827 44.315C46.2195 43.8758 45.4417 43.6401 44.6455 43.637V43.582Z" fill="white"/>
<path d="M48.1986 0C21.5834 0 0 14.113 0 31.427V33.253C0 51.623 18.869 66.495 48.1986 66.495C77.7159 66.495 96.3972 51.623 96.3972 33.253V31.416C96.3972 14.113 74.8138 0 48.1986 0ZM94.2235 27.94C87.2763 29.4839 80.4953 31.6942 73.9752 34.54C69.3959 30.558 58.8359 21.406 55.9779 19.261C54.8675 18.3183 53.602 17.574 52.2372 17.061C51.6443 16.8755 51.0269 16.7791 50.4055 16.775C49.6142 16.7837 48.829 16.9135 48.0772 17.16C46.0516 17.9845 44.1848 19.1532 42.56 20.614L42.4607 20.68C40.8055 22 39.0841 23.353 37.7821 23.65C37.2171 23.7765 36.6397 23.8392 36.0607 23.837C35.4719 23.88 34.8804 23.8048 34.3213 23.6159C33.7622 23.4269 33.2467 23.1281 32.8055 22.737C32.7283 22.627 32.8055 22.462 32.971 22.231L36.9876 17.908C40.1434 14.762 43.1117 11.803 49.9641 11.638H50.3062C53.4157 11.7683 56.4718 12.4888 59.3103 13.761C63.1395 15.6947 67.3656 16.7187 71.6579 16.753C76.3183 16.6745 80.9053 15.582 85.0979 13.552C89.9972 17.633 93.2304 22.572 94.2235 27.94ZM48.1986 1.84803C62.3228 1.84803 74.9683 5.88501 83.509 12.243C79.7975 13.9264 75.779 14.8325 71.7021 14.905C67.7117 14.8723 63.782 13.9277 60.2152 12.144C57.1328 10.7402 53.8032 9.95526 50.4166 9.834H50.0303C45.9509 9.76929 41.9854 11.1756 38.8634 13.794C36.9666 13.8925 35.0902 14.2326 33.28 14.806C32.0098 15.2302 30.6889 15.4854 29.3517 15.565C28.8441 15.565 27.9503 15.565 27.8621 15.565C23.0554 14.7206 18.3406 13.4204 13.7821 11.682C22.2345 5.64303 34.5269 1.859 48.1986 1.859V1.84803ZM12.0828 12.848C17.9531 15.235 25.0924 17.105 27.3545 17.248C27.9835 17.248 28.6565 17.369 29.3296 17.369C30.832 17.2982 32.3174 17.0206 33.7434 16.544C34.5931 16.313 35.5421 16.049 36.5352 15.862C36.2703 16.126 36.0055 16.379 35.7407 16.654L31.6469 21.054C31.3476 21.3256 31.1355 21.6794 31.0373 22.0708C30.9391 22.4623 30.9593 22.8739 31.0952 23.254C31.3416 23.747 31.7245 24.1592 32.1986 24.442C33.5206 25.1859 35.0173 25.5655 36.5352 25.542C37.1137 25.5457 37.6909 25.4867 38.2566 25.366C39.9669 24.992 41.7655 23.551 43.6745 22.066C45.2502 20.7113 47.0497 19.6394 48.9931 18.898C49.4791 18.7687 49.9797 18.7021 50.4828 18.7C50.6075 18.6877 50.7332 18.6877 50.8579 18.7C52.3536 18.9501 53.7489 19.6132 54.8855 20.614C58.1959 23.122 73.0924 36.069 73.2248 36.201C73.5217 36.4831 73.7542 36.8256 73.9065 37.2052C74.0588 37.5848 74.1274 37.9926 74.1076 38.401C74.0792 38.7866 73.9568 39.1595 73.751 39.4873C73.5453 39.8151 73.2624 40.0879 72.9269 40.282C72.3477 40.6667 71.6696 40.8767 70.9738 40.887C70.3644 40.8888 69.7672 40.717 69.2524 40.392C69.1973 40.392 64.1104 35.706 62.2455 34.133C62.0135 33.886 61.7078 33.7201 61.3738 33.66C61.3007 33.6612 61.2287 33.6775 61.1622 33.7077C61.0957 33.738 61.0363 33.7817 60.9876 33.836C60.6896 34.199 60.9876 34.694 61.4179 35.024L67.3655 40.975C67.81 41.4058 68.1007 41.9699 68.1931 42.581C68.2111 43.0793 68.0896 43.5727 67.842 44.006C67.5945 44.4393 67.2308 44.7952 66.7917 45.034C66.1735 45.4679 65.44 45.7091 64.6841 45.727C64.0818 45.7294 63.493 45.5491 62.9959 45.21L62.1462 44.374C60.5904 42.845 58.9793 41.261 57.7986 40.282C57.5622 40.037 57.2525 39.8749 56.9158 39.82C56.845 39.8186 56.7748 39.8326 56.71 39.8611C56.6451 39.8896 56.5874 39.9319 56.5407 39.985C56.4083 40.139 56.32 40.392 56.651 40.843C56.741 40.9611 56.8406 41.0715 56.9489 41.173L61.2855 46.024C61.5391 46.3064 61.6874 46.6673 61.7055 47.0459C61.7236 47.4246 61.6103 47.7978 61.3848 48.103L61.2303 48.29C61.0979 48.433 60.9545 48.565 60.8331 48.675C60.2185 49.1216 59.475 49.3572 58.7145 49.346C58.5163 49.3652 58.3168 49.3652 58.1186 49.346C57.8049 49.3225 57.507 49.1991 57.269 48.994L57.2138 48.939C56.9821 48.697 54.7862 46.475 52.9876 44.968C52.7656 44.7295 52.4708 44.571 52.149 44.517C52.0757 44.5168 52.0032 44.5324 51.9365 44.5628C51.8699 44.5932 51.8106 44.6376 51.7628 44.693C51.4097 45.078 51.9393 45.672 52.171 45.881L55.8676 49.951C55.8369 50.0406 55.788 50.123 55.7241 50.193C55.5917 50.369 55.1503 50.82 53.7931 50.996C53.6278 51.0078 53.4618 51.0078 53.2965 50.996C52.0222 50.9067 50.7848 50.5306 49.6772 49.896C50.0702 49.0594 50.2454 48.1375 50.1867 47.2156C50.128 46.2936 49.8372 45.4013 49.3414 44.6209C48.8455 43.8405 48.1604 43.1972 47.3493 42.7503C46.5383 42.3034 45.6274 42.0674 44.7007 42.064H44.5021C44.6367 41.0261 44.4326 39.9725 43.9199 39.0592C43.4071 38.1459 42.6131 37.4214 41.6552 36.993C40.9286 36.6709 40.1441 36.4988 39.349 36.487C38.7721 36.4868 38.2001 36.5911 37.6607 36.795C37.1011 35.7082 36.1334 34.8858 34.9683 34.507C34.3305 34.2815 33.6588 34.1662 32.9821 34.166C31.8725 34.158 30.7895 34.505 29.8924 35.156C29.4564 34.6131 28.9041 34.1743 28.2759 33.8717C27.6478 33.569 26.9597 33.4103 26.2621 33.407C25.0238 33.4101 23.8358 33.8957 22.9517 34.76C21.8483 33.891 17.2359 30.987 5.00966 28.215C4.43587 28.083 3.11171 27.709 2.26206 27.456C3.43171 21.989 6.91863 16.995 12.0828 12.892V12.848ZM34.7476 44.572L34.6152 44.451H34.4828C34.345 44.4633 34.2141 44.5171 34.1076 44.605C33.5807 45.0081 32.9397 45.2352 32.2759 45.254C31.9283 45.2496 31.5843 45.1826 31.2607 45.056C30.3615 44.7225 29.6149 44.0742 29.1601 43.2322C28.7052 42.3902 28.5733 41.4119 28.789 40.48C28.8021 40.4125 28.7978 40.3428 28.7766 40.2774C28.7553 40.212 28.7179 40.1531 28.6676 40.106L28.469 39.941L28.2814 40.117C27.807 40.5795 27.1899 40.8688 26.53 40.9381C25.8701 41.0073 25.206 40.8525 24.6454 40.4987C24.0848 40.1448 23.6604 39.6127 23.441 38.9884C23.2216 38.3641 23.22 37.6843 23.4365 37.059C23.6529 36.4338 24.0748 35.8996 24.6338 35.5432C25.1927 35.1867 25.856 35.0288 26.5162 35.095C27.1764 35.1611 27.7949 35.4476 28.2715 35.9078C28.7481 36.3681 29.0548 36.9753 29.1421 37.631L29.2524 38.423L29.6938 37.752C30.0776 37.1929 30.5886 36.7321 31.1849 36.4071C31.7813 36.0822 32.4462 35.9023 33.1255 35.882C33.5595 35.886 33.9907 35.9527 34.4055 36.08C34.9987 36.2658 35.5187 36.6318 35.8926 37.1269C36.2666 37.6221 36.4759 38.2214 36.491 38.841C36.491 39.215 36.8 39.237 36.8442 39.237C36.9102 39.2325 36.9746 39.2145 37.0334 39.1842C37.0922 39.154 37.1442 39.112 37.1862 39.061C37.4715 38.7667 37.8149 38.5346 38.1948 38.3793C38.5746 38.2241 38.9827 38.149 39.3931 38.159C39.9533 38.1656 40.5059 38.2893 41.0152 38.522C43.7848 39.71 42.5269 43.208 42.5159 43.252C42.2841 43.824 42.2621 44.088 42.5159 44.242H42.6262H42.7035C42.8867 44.2234 43.0655 44.1751 43.2331 44.099C43.7052 43.9113 44.2044 43.7999 44.7117 43.769C45.712 43.7804 46.668 44.1816 47.3753 44.8867C48.0827 45.5918 48.4851 46.5449 48.4966 47.542C48.5185 48.5397 48.142 49.5053 47.4498 50.2263C46.7576 50.9473 45.8064 51.3646 44.8055 51.3865C43.8047 51.4084 42.8361 51.033 42.1128 50.343C41.3896 49.653 40.9709 48.7048 40.9489 47.707C40.9489 47.531 40.949 47.069 40.5407 47.069C40.3636 47.0887 40.1993 47.1706 40.0772 47.3C39.5949 47.8126 38.9281 48.1133 38.2235 48.136C37.8054 48.1285 37.3929 48.0388 37.0097 47.872C34.8579 47.003 34.8028 45.529 34.9131 44.935C34.911 44.8729 34.8951 44.8121 34.8665 44.7569C34.8378 44.7017 34.7972 44.6536 34.7476 44.616V44.572ZM48.1986 60.929C22.5986 60.929 1.85379 47.729 1.85379 31.361C1.85379 30.701 1.85379 30.052 1.96414 29.403L4.62345 30.03C17.1035 32.802 21.1752 35.673 21.9255 36.212C21.6241 36.9201 21.5026 37.6914 21.5718 38.4575C21.641 39.2236 21.8988 39.9608 22.3223 40.6038C22.7458 41.2468 23.3218 41.7758 23.9995 42.1437C24.6771 42.5116 25.4353 42.7072 26.2069 42.713C26.4957 42.7164 26.784 42.6905 27.0676 42.636C27.2571 43.5591 27.6814 44.4182 28.2997 45.1309C28.918 45.8436 29.7096 46.386 30.5986 46.706C31.1296 46.9137 31.6945 47.0218 32.2648 47.025C32.6366 47.0249 33.007 46.9806 33.3683 46.893C33.7968 47.7939 34.4666 48.5593 35.3039 49.1048C36.1412 49.6502 37.1133 49.9545 38.1131 49.984C38.6035 49.985 39.0899 49.8955 39.5476 49.72C39.8962 50.5602 40.4483 51.3011 41.1545 51.8765C41.8608 52.4519 42.6991 52.8437 43.5944 53.017C44.4898 53.1903 45.4143 53.1396 46.2852 52.8695C47.156 52.5993 47.9462 52.1181 48.5848 51.469C50.0073 52.2961 51.6078 52.7714 53.2524 52.855C53.4875 52.8728 53.7235 52.8728 53.9586 52.855C54.5656 52.8356 55.1616 52.6884 55.7074 52.423C56.2533 52.1575 56.7365 51.7799 57.1255 51.315C57.2013 51.2149 57.2678 51.1081 57.3242 50.996C57.8105 51.1451 58.316 51.2229 58.8248 51.227C59.9222 51.1962 60.9796 50.8101 61.8372 50.127C62.7466 49.5288 63.3875 48.602 63.6248 47.542C63.9548 47.6135 64.2913 47.6504 64.629 47.652C65.7369 47.6383 66.8159 47.2977 67.7297 46.673C68.4249 46.2736 68.9977 45.6928 69.3865 44.9931C69.7754 44.2935 69.9655 43.5014 69.9366 42.702C70.274 42.7735 70.6178 42.8104 70.9628 42.812C72.0003 42.8052 73.0131 42.4955 73.8759 41.921C74.4522 41.5715 74.9363 41.0896 75.2876 40.5155C75.6389 39.9414 75.8472 39.2918 75.8952 38.621C75.9628 37.6926 75.7392 36.7661 75.2552 35.97C81.4893 33.4301 87.9268 31.4173 94.4993 29.953C94.4993 30.437 94.5545 30.932 94.5545 31.427C94.5545 47.74 73.7986 60.973 48.1986 60.973V60.929Z" fill="#2D3277"/>
</g>
<defs>
<clipPath id="clip0_229_147">
<rect width="96" height="66" fill="white"/>
</clipPath>
</defs>
</svg>

<svg xmlns="http://www.w3.org/2000/svg" width="96" height="66" fill="none"><g clip-path="url(#a)"><path fill="#00B1EA" d="M48.2 1.24C22.08 1.24.9 14.75.9 31.41c0 16.65 21.18 31.47 47.3 31.47 26.12 0 47.3-14.81 47.3-31.48 0-16.66-21.16-30.16-47.3-30.16Z"/><path fill="#fff" d="M32.83 22.08s-.49.51-.19.9c.73.93 2.99 1.46 5.27.96 1.36-.31 3.12-1.69 4.8-3.03a19.28 19.28 0 0 1 5.51-3.48 6.3 6.3 0 0 1 4-.1c1.32.5 2.55 1.2 3.64 2.12 3.16 2.37 15.92 13.46 18.13 15.4 6.77-2.83 13.79-5.04 20.96-6.6-.94-5.69-4.41-11.12-9.64-15.4-7.35 3.08-16.93 4.92-25.71.65a24.34 24.34 0 0 0-9.48-2.15c-6.96.17-9.99 3.17-13.18 6.35l-4.11 4.38Z"/><path fill="#fff" d="M73.4 36.06c-.15-.13-14.98-13.08-18.36-15.6a8.26 8.26 0 0 0-4.16-1.97 5.96 5.96 0 0 0-1.99.19 18 18 0 0 0-5.43 3.22c-1.87 1.5-3.65 2.9-5.3 3.3-1.98.41-4.05.1-5.83-.87a2.61 2.61 0 0 1-.97-1.1 1.78 1.78 0 0 1 .5-1.93l4.1-4.4 1.45-1.42c-1.26.19-2.51.47-3.73.83-1.43.47-2.91.75-4.42.82a41.89 41.89 0 0 1-4.41-.7 72.98 72.98 0 0 1-12.77-4.25C6.26 16.5 2.46 21.8 1.34 27.75c.83.22 3.02.72 3.6.85 13.17 2.93 17.27 5.93 18.02 6.6a4.36 4.36 0 0 1 6.83.4c.9-.72 2-1.1 3.15-1.1.64 0 1.27.12 1.87.33a4.29 4.29 0 0 1 2.65 2.38c.58-.25 1.2-.39 1.83-.38.76 0 1.52.17 2.21.48a4.66 4.66 0 0 1 2.6 5.2h.51a5.23 5.23 0 0 1 5.24 5.11c.02.9-.2 1.8-.64 2.6a8.3 8.3 0 0 0 4.54 1.2 2.93 2.93 0 0 0 2.13-.92c.13-.19.27-.4.14-.55l-3.72-4.11s-.61-.58-.4-.8c.2-.24.6.1.84.31a70.67 70.67 0 0 1 4.2 3.95s.19.33 1.1.49A3.88 3.88 0 0 0 61 49.1c.23-.2.45-.42.65-.66a1.95 1.95 0 0 0-.11-2.44l-4.43-4.9s-.63-.58-.4-.8c.22-.24.6.1.86.32 1.36 1.1 3.3 3.1 5.17 4.9a3.54 3.54 0 0 0 4.16-.13 2.96 2.96 0 0 0 1.53-2.71 3.11 3.11 0 0 0-.92-1.8l-5.94-5.94s-.63-.53-.4-.8c.24-.28.6.1.85.31 1.9 1.59 7 6.25 7 6.25a3.6 3.6 0 0 0 4.02-.08 2.7 2.7 0 0 0 1.32-2.12 2.96 2.96 0 0 0-.95-2.44Z"/><path fill="#fff" d="M44.65 43.58c-.7.1-1.39.25-2.06.46-.06 0 .06-.4.15-.62.08-.22 1.3-3.84-1.66-5.1a3.49 3.49 0 0 0-4.11.6c-.13.14-.18.13-.2 0a3.3 3.3 0 0 0-2.29-3 4.43 4.43 0 0 0-5.03 1.79 3.2 3.2 0 0 0-4.9-2.27 3.2 3.2 0 1 0 3.94 5v.12a4.22 4.22 0 0 0 2.66 4.87 3.19 3.19 0 0 0 3.12-.48c.27-.18.3-.11.27.14-.11.74 0 2.34 2.27 3.24a2.89 2.89 0 0 0 3.38-.62c.28-.27.36-.22.37.18a4.05 4.05 0 0 0 4.98 3.76 4.08 4.08 0 0 0 2.84-5.54 4.06 4.06 0 0 0-3.73-2.47v-.06Z"/><path fill="#2D3277" d="M48.2 0C21.58 0 0 14.11 0 31.43v1.82C0 51.62 18.87 66.5 48.2 66.5c29.52 0 48.2-14.88 48.2-33.25v-1.83C96.4 14.12 74.8 0 48.2 0Zm46.02 27.94a110.6 110.6 0 0 0-20.24 6.6c-4.58-3.98-15.14-13.13-18-15.28a12.66 12.66 0 0 0-3.74-2.2 6.27 6.27 0 0 0-1.83-.29c-.8.01-1.58.14-2.33.39-2.03.82-3.9 2-5.52 3.45l-.1.07c-1.65 1.32-3.38 2.67-4.68 2.97-.56.13-1.14.19-1.72.19a4.43 4.43 0 0 1-3.25-1.1c-.08-.11 0-.28.16-.5L37 17.9c3.15-3.15 6.12-6.1 12.97-6.27h.35c3.1.13 6.16.85 9 2.12a27.89 27.89 0 0 0 12.35 3 32.08 32.08 0 0 0 13.44-3.2c4.9 4.07 8.13 9.01 9.12 14.38ZM48.2 1.84c14.12 0 26.77 4.05 35.3 10.4a29.87 29.87 0 0 1-11.8 2.66 26.16 26.16 0 0 1-11.48-2.76 25.88 25.88 0 0 0-9.8-2.3h-.39a16.96 16.96 0 0 0-11.17 3.95c-1.9.1-3.77.44-5.58 1.02-1.27.42-2.6.68-3.93.75h-1.49a76.81 76.81 0 0 1-14.08-3.88c8.45-6.04 20.75-9.82 34.42-9.82v-.01Zm-36.12 11c5.87 2.4 13.01 4.27 15.27 4.4.63 0 1.3.13 1.98.13 1.5-.07 2.99-.35 4.41-.83.85-.23 1.8-.5 2.8-.68l-.8.8-4.1 4.4a2.05 2.05 0 0 0-.54 2.2c.24.49.62.9 1.1 1.18a8.57 8.57 0 0 0 4.34 1.1 8 8 0 0 0 1.72-.17c1.7-.38 3.5-1.82 5.41-3.3A18 18 0 0 1 49 18.9a5.89 5.89 0 0 1 1.87-.2c1.5.25 2.89.91 4.03 1.91 3.3 2.51 18.2 15.46 18.33 15.6a2.85 2.85 0 0 1 .89 2.2 2.37 2.37 0 0 1-1.18 1.87c-.58.39-1.26.6-1.96.6-.6 0-1.2-.16-1.72-.49-.05 0-5.14-4.68-7-6.26a1.58 1.58 0 0 0-.88-.47.53.53 0 0 0-.38.18c-.3.36 0 .85.43 1.18l5.95 5.95c.44.44.73 1 .82 1.61a2.68 2.68 0 0 1-1.4 2.45c-.62.44-1.35.68-2.1.7-.6 0-1.2-.18-1.7-.52l-.84-.84c-1.56-1.52-3.17-3.1-4.35-4.09-.24-.24-.55-.4-.88-.46a.49.49 0 0 0-.38.16c-.13.16-.22.41.11.86l.3.33 4.34 4.85a1.65 1.65 0 0 1 .1 2.08l-.16.19c-.13.14-.28.27-.4.38-.61.45-1.35.69-2.12.68-.2.02-.4.02-.6 0a1.47 1.47 0 0 1-.84-.36l-.06-.05A69.23 69.23 0 0 0 53 44.97c-.22-.24-.52-.4-.84-.45a.5.5 0 0 0-.39.17c-.35.39.18.98.41 1.2l3.7 4.06a.7.7 0 0 1-.15.24c-.13.18-.57.63-1.93.8a8.47 8.47 0 0 1-4.12-1.1 5.48 5.48 0 0 0-4.97-7.83h-.2A4.86 4.86 0 0 0 41.66 37a5.9 5.9 0 0 0-2.31-.5c-.58 0-1.15.1-1.69.3a4.64 4.64 0 0 0-2.7-2.28 5.96 5.96 0 0 0-1.98-.34 5.2 5.2 0 0 0-3.09.99 4.68 4.68 0 0 0-6.94-.4c-1.1-.87-5.71-3.77-17.94-6.54-.57-.14-1.9-.51-2.75-.76C3.43 21.99 6.92 17 12.08 12.89v-.04Zm22.67 31.73-.13-.12h-.14a.69.69 0 0 0-.37.15c-.53.4-1.17.64-1.83.65-.35 0-.7-.07-1.02-.2a3.95 3.95 0 0 1-2.47-4.57.4.4 0 0 0-.12-.37l-.2-.17-.19.18a2.95 2.95 0 0 1-4.84-3.06 2.94 2.94 0 0 1 4.83-1.15c.48.46.78 1.07.87 1.72l.11.8.44-.68a4.31 4.31 0 0 1 3.44-1.87c.43 0 .86.07 1.28.2a2.98 2.98 0 0 1 2.08 2.76c0 .38.31.4.35.4a.49.49 0 0 0 .35-.18 2.97 2.97 0 0 1 2.2-.9c.56 0 1.12.13 1.63.36 2.76 1.19 1.5 4.69 1.5 4.73-.24.57-.26.84 0 1h.18c.19-.03.37-.07.53-.15.48-.19.97-.3 1.48-.33a3.83 3.83 0 0 1 2.74 6.46 3.78 3.78 0 0 1-6.5-2.52c0-.18 0-.64-.4-.64a.75.75 0 0 0-.47.23c-.49.51-1.15.81-1.86.84-.41-.01-.83-.1-1.21-.27-2.15-.87-2.2-2.34-2.1-2.93a.42.42 0 0 0-.16-.32v-.05ZM48.2 60.93c-25.6 0-46.35-13.2-46.35-29.57 0-.66 0-1.3.11-1.96l2.66.63c12.48 2.77 16.56 5.64 17.3 6.18a4.66 4.66 0 0 0 5.15 6.43 5.5 5.5 0 0 0 5.2 4.38c.37 0 .74-.04 1.1-.13A5.42 5.42 0 0 0 38.1 50c.5 0 .98-.1 1.44-.27a5.5 5.5 0 0 0 9.03 1.75 10.33 10.33 0 0 0 5.38 1.38 4.31 4.31 0 0 0 3.17-1.54l.2-.31c.48.15.99.22 1.5.23a5.06 5.06 0 0 0 3-1.1 4.2 4.2 0 0 0 1.8-2.59c.32.07.66.11 1 .11a5.62 5.62 0 0 0 3.1-.98 4.4 4.4 0 0 0 2.2-3.97 5.06 5.06 0 0 0 3.95-.78 4.22 4.22 0 0 0 2.02-3.3 4.48 4.48 0 0 0-.64-2.65 120.4 120.4 0 0 1 19.24-6.02c0 .49.05.98.05 1.48 0 16.31-20.75 29.54-46.35 29.54v-.04Z"/></g><defs><clipPath id="a"><path fill="#fff" d="M0 0h96v66H0z"/></clipPath></defs></svg>
